!!!OTL: Der wunderliche Kittel.
!!!OTL-incipit: ICH WOLLTE MIR EINEN KITTEL NAEHEN
!!!ARE: Europa, Mitteleuropa, Deutschland, Westfalen
!!!SCT: Z1371
!!!TXL: @@DE
!!!YEM: Copyright 1995, estate of Helmut Schaffrath.
**kern	**text
*ICvox	*
*M6/8	*
*k[f#]	*
*G:	*
!LO:TX:a:t=Weſtphalen.	!
{8d	Jch
=1	=1
4d	wollte
8g	mir
8gL	ei-
8aJ	.
8b/	-nen
=2	=2
4b/	Kit-
8d	-tel
4d}	näh'n;
{8d	ging
=3	=3
4b/	vor
8g	die
8gL	Klo-
8f#J	.
8g	-ſter-
=4	=4
4a	-thü-
8f#	-re
4d}	ſtehn.
{8d	O
=5	=5
4d	lieb-
8g	-ſte
8g	Nonnen,
8a	.
8b	helft
=6	=6
8bL	mir
8aJ	.
8a	daʒu!
4a}	.
{8cc	die
=7	=7
8b/	Nonnen
8a	.
8b	die
8b	ga-
8cc	-ben
8dd	mir
=8	=8
8ddL	gern
8ccJ	.
8b	da-
4a	-ʒu
8r}	.
=9	=9
{4b/	ei-
8g	-ne
8g	Kut-
8f#	-te
8g	die
=10	=10
4a	hilft
8f#	da-
4d	-ʒu,
8r}	.
=11	=11
{8d	Hin-
8g	-ten-
8g	-ʒipf
4g	ʒipf!
8r}	.
=12	=12
{4g	Freu
8b	dich,
8dd	Mädel,
8cc	.
8b	der
=13	=13
8a	Kit-
8a	-tel
8f#	wird
4.g;}	hübſch!
=14||	=14||
!LO:TX:a:t=1. 2. 3. u.s.w.	!
{(>8d	Hin-
8g	-ten-
8g	-ʒipf,
8g	Hah-
8g	-nen-
8g	-kamm
=15	=15
8g)	u.
8g	ſ.
8g	w.
8g	.
8g	.
8g}	.
=16	=16
{4g	freu
8b/	dich,
8dd	Mä-
8cc	-del,
8b	der
=17	=17
8a	Kit-
8a	-tel
8f#	wird
4g;}	hübſch!
==	==
!!!AGN: Kinder - Lied
!!!ONB: ESAC (Essen Associative Code) Database: ZUCCAL
!!!AMT: compound duple
!!!AIN: vox
!!!EED: Helmut Schaffrath
!!!EEV: 1.0
!!!RDF**kern: >= above
!!!GTL: IX. Kinder- Lieder.
!!!URL-scan: https://www.digitale-sammlungen.de/de/view/bsb11160573?page=676
!!!ENC: Anna Maria Matuszewska
!!!EEV: 2025/02/07
*-	*-
